X:1
T:Clear as Crystal
T:Clear as Crystal
T:George Frederick Root
T:George Frederick Root, 1885
T:Public Domain Courtesy of the Cyber Hymnal™
C:George Frederick Root
Z:Public Domain
Z:Courtesy of the Cyber Hymnal™
%%score ( 1 2 ) ( 3 4 )
L:1/8
Q:1/4=108
M:3/4
K:Eb
V:1 treble 
V:2 treble 
V:3 bass 
V:4 bass 
V:1
 [GB]>[Ac] | [GB]2 [EG]2 [EG]>[EA] | [EG]2 [B,E]2 [B,E]>[B,E] | [B,D]3 [DF] [DA][Dc] | %4
w: 1.~Clear as|crys- tal flows the|riv- er From the|throne of God a-|
w: 2.~Clear as|crys- tal, like a|jas- per, Is the|heav’n- ly ci- ty’s|
w: 3.~Clear as|crys- tal, like the|wond- rous Sea of|glass be- fore the|
 (B2 G2) [EG]>[EG] | [EF]>[E=A] [Ec]2 [EF]>[EF] | [DF]>[DB] [Fd]2 [GB]>[EG] | %7
w: bove; * ’Tis the|wa- ter pure, of e-|ter- nal life, From the|
w: light, * As the|wall ap- pears, and the|pearl- y gates— To the|
w: throne, * Where the|joy- ful cry ris- es|day and night To the|
 [DF]3 [DF] [EG]>[E=A] x4 | !fermata!B4 ||"^Refrain" [GB]>[Ac] x4 | [GB]2 [EG]2 [EG]>[EA] | %11
w: Fount of end- less|love.|||
w: pil- grim’s rav- ished|sight.|||
w: glor- ious Three in|One.|||
 [EG]2 [B,E]2 [B,E]>[B,D] | C3 [CE] [CA][EB] | [Ac]4 [Ad]>[Ad] | [Ge]2 [EG]2 [EG]>[EG] | %15
w: ||||
w: ||||
w: ||||
 [EB]2 E2 E>[EF] | [EG]3 [FA] [DG]>[DF] | E4 |] %18
w: |||
w: |||
w: |||
V:2
 x2 | x6 | x6 | x6 | E4 x2 | x6 | x6 | x10 | (D2 A2) || x6 | x6 | x6 | C3 x3 | x6 | x6 | %15
 x2 E2 E3/2 x/ | x6 | E4 |] %18
V:3
 [E,E]>[E,E] | [E,E]2 [E,B,]2 [E,B,]>[E,C] | [E,B,]2 [E,G,]2 [E,G,]>[E,G,] | %3
w: ~ ~|~ ~ ~ ~|~ ~ ~ ~|
 [B,,F,]3 [B,,A,] [B,,F,][B,,A,] | (G,2 B,2) [E,B,]>[E,B,] | [F,=A,]>[F,A,] [F,A,]2 [F,A,]>[F,A,] | %6
w: ~ ~ ~ ~|~ * ~ ~|~ ~ ~ ~ ~|
 [B,,B,]>[B,,B,] [B,,B,]2 [E,B,]>[E,B,] | [F,B,]3 [F,B,] [F,=A,]>[F,C] (!fermata!B,2 !fermata!D2) | %8
w: ~ ~ ~ ~ ~|~ ~ ~ ~ ~ *|
 [E,E]>[E,E] x2 || [E,E]2 [E,B,]2 [E,B,]>[E,C] | [E,B,]2 [E,G,]2 [E,G,]>[E,G,] | %11
w: Clear as|crys- tal, clear as|crys- tal May Thy|
 [A,,A,]3 [A,,A,] [A,,A,][A,,A,] | [A,,A,]4 [B,,F]>[B,,F] | [C,E]2 [C,C]2 [C,C]>[C,C] | %14
w: truth for- ev- er|be; Clear as|crys- tal, clear as|
 [G,,B,]2 [G,,B,]2 [G,,B,]>[A,,C] | [B,,B,]3 [B,,B,] [B,,B,]>[B,,A,] | [E,G,]4 x2 | x4 |] %18
w: crys- tal In our|hearts, O Lord, from|Thee.||
V:4
 x2 | x6 | x6 | x6 | E,4 x2 | x6 | x6 | x6 B,,4 | x4 || x6 | x6 | x6 | x6 | x6 | x6 | x6 | x6 | %17
 x4 |] %18

